svg/color/dgs.svg

<?xml version="1.0" encoding="UTF-8" ?>
<!DOCTYPE svg PUBLIC "-//W3C//DTD SVG 1.1//EN" "http://www.w3.org/Graphics/SVG/1.1/DTD/svg11.dtd">
<svg width="250pt" height="250pt" viewBox="0 0 250 250" version="1.1" xmlns="http://www.w3.org/2000/svg">
<g id="#ffffffff">
<path fill="#ffffff" opacity="1.00" d=" M 0.00 0.00 L 250.00 0.00 L 250.00 250.00 L 0.00 250.00 L 0.00 0.00 M 78.81 39.93 C 73.40 41.58 67.77 42.27 62.27 43.51 C 50.19 46.29 38.09 48.96 25.96 51.55 C 26.60 53.29 28.62 53.30 30.12 53.78 C 44.64 57.21 58.99 61.32 73.59 64.41 C 87.42 68.69 101.65 71.47 115.62 75.25 C 118.88 76.35 122.16 74.97 125.32 74.20 C 136.33 71.16 147.53 68.88 158.42 65.42 C 175.02 61.40 191.50 56.89 208.08 52.81 C 207.85 51.70 207.18 51.10 206.06 51.03 C 190.81 48.01 175.77 44.05 160.47 41.30 C 148.19 37.78 135.59 35.60 123.17 32.65 C 120.22 31.99 117.15 31.01 114.13 31.96 C 102.39 34.76 90.50 36.92 78.81 39.93 M 25.93 56.19 C 25.08 59.40 25.41 62.73 25.38 66.01 C 25.41 81.68 25.37 97.35 25.40 113.02 C 25.51 116.69 24.61 120.30 24.66 123.97 C 24.67 146.73 24.53 169.49 24.59 192.25 C 50.04 198.99 75.42 205.97 100.97 212.28 C 106.25 213.43 111.37 215.41 116.78 215.91 C 117.63 209.97 117.05 203.97 117.25 198.00 C 117.34 158.44 117.69 118.87 117.60 79.32 C 103.72 75.41 89.66 72.24 75.74 68.49 C 59.21 64.08 42.44 60.68 25.93 56.19 M 206.19 57.20 C 177.64 64.75 149.02 72.00 120.49 79.63 C 119.91 104.40 120.50 129.21 120.17 153.99 C 119.59 170.32 119.79 186.67 119.66 203.00 C 119.72 207.28 119.27 211.61 120.17 215.83 C 124.91 215.36 129.45 213.85 134.06 212.75 C 155.36 207.37 176.66 202.02 197.97 196.69 C 202.41 195.52 206.97 194.73 211.26 193.05 C 211.37 150.37 211.53 107.68 211.79 65.00 C 211.80 62.09 211.78 59.17 211.53 56.27 C 209.73 56.46 207.94 56.73 206.19 57.20 Z" />
<path fill="#ffffff" opacity="1.00" d=" M 28.51 60.36 C 39.66 63.09 50.69 66.25 61.79 69.15 C 79.09 73.51 96.43 77.74 113.71 82.19 C 113.69 125.27 113.52 168.36 113.24 211.43 C 86.01 204.51 58.92 197.03 31.53 190.74 C 30.11 190.23 27.31 190.27 27.62 188.07 C 27.59 168.04 27.64 148.02 27.62 127.99 C 27.52 124.63 28.17 121.31 28.29 117.96 C 28.43 98.76 28.18 79.56 28.51 60.36 M 39.39 92.35 C 39.76 106.21 38.73 120.17 40.40 133.96 C 40.44 147.78 40.44 161.61 40.49 175.44 C 46.67 176.73 52.92 177.70 59.08 179.07 C 67.15 180.52 75.35 182.54 83.59 181.34 C 93.20 180.23 101.96 173.61 105.69 164.70 C 109.67 155.98 109.40 146.01 108.09 136.72 C 105.40 121.25 95.55 106.43 80.96 99.94 C 72.80 96.28 63.70 96.39 55.01 95.11 C 49.79 94.28 44.54 93.56 39.39 92.35 Z" />
<path fill="#ffffff" opacity="1.00" d=" M 124.39 82.52 C 152.24 75.47 179.97 67.91 207.85 60.94 C 207.75 104.06 207.73 147.18 207.35 190.30 C 179.43 197.15 151.63 204.54 123.64 211.10 C 123.73 168.24 123.30 125.37 124.39 82.52 M 165.47 98.15 C 165.05 100.45 164.58 102.75 164.09 105.03 C 162.84 103.28 161.87 101.36 160.78 99.51 C 151.83 101.95 142.93 104.66 134.17 107.73 C 138.61 114.60 141.83 122.15 145.98 129.18 C 148.10 133.12 150.39 137.00 152.11 141.14 C 151.45 146.15 149.22 150.84 147.97 155.73 C 144.54 165.73 141.69 175.93 138.23 185.92 C 147.49 183.97 156.68 181.52 165.73 178.74 C 166.40 175.88 167.11 173.03 167.66 170.14 C 168.90 172.42 170.12 174.71 171.33 177.00 C 180.55 174.84 189.58 171.87 198.64 169.11 C 192.39 157.35 185.58 145.86 179.78 133.87 C 183.68 119.20 188.84 104.81 193.19 90.24 C 183.91 92.72 174.56 95.06 165.47 98.15 Z" />
<path fill="#ffffff" opacity="1.00" d=" M 40.82 105.03 C 40.41 101.76 40.13 98.25 41.70 95.22 C 49.54 96.29 57.16 98.60 65.05 99.38 C 72.34 100.13 79.67 102.11 85.79 106.27 C 96.46 113.49 103.44 125.48 105.35 138.13 C 106.01 146.74 106.63 155.90 102.83 163.94 C 99.39 171.64 91.67 177.04 83.36 178.09 C 74.29 179.54 65.35 176.71 56.39 175.70 C 51.74 174.91 46.90 174.89 42.43 173.27 C 42.57 167.19 42.81 161.06 41.67 155.05 C 41.44 143.70 41.65 132.34 41.54 120.99 C 41.42 115.67 41.86 110.29 40.82 105.03 M 43.34 98.26 C 43.55 111.04 43.35 123.82 43.56 136.59 C 45.18 148.23 44.10 160.03 44.37 171.75 C 52.94 173.57 61.54 175.27 70.17 176.78 C 77.42 177.71 85.30 177.66 91.79 173.88 C 99.06 169.73 103.61 161.84 104.71 153.66 C 106.58 140.04 103.32 125.37 94.22 114.80 C 87.78 106.40 77.45 101.57 66.99 100.85 C 59.07 100.27 51.31 98.18 43.34 98.26 Z" />
<path fill="#ffffff" opacity="1.00" d=" M 45.36 100.33 C 50.55 100.78 55.59 102.13 60.67 103.20 C 60.93 118.13 61.45 133.06 61.51 148.00 C 61.56 150.22 61.59 152.46 61.94 154.66 C 68.17 155.50 74.97 157.79 80.98 154.85 C 86.86 151.61 87.20 143.96 86.25 138.08 C 85.43 131.21 80.15 125.34 73.54 123.47 C 71.54 122.62 68.99 122.85 67.30 121.49 C 66.85 115.66 66.90 109.80 66.93 103.96 C 76.07 104.82 85.02 108.94 91.06 115.95 C 100.51 125.93 103.91 140.56 101.76 153.93 C 100.78 160.52 97.12 166.80 91.42 170.39 C 85.72 174.16 78.52 174.45 71.92 173.78 C 63.55 172.64 55.24 171.00 46.82 170.22 C 46.31 165.82 45.49 161.45 45.59 157.01 C 45.69 138.11 45.42 119.22 45.36 100.33 Z" />
<path fill="#ffffff" opacity="1.00" d=" M 171.08 104.38 C 174.82 102.53 179.00 101.78 183.01 100.73 C 179.86 112.28 175.49 123.48 172.37 135.04 C 176.79 145.34 183.72 154.51 188.06 164.86 C 183.71 166.08 179.35 167.26 174.99 168.41 C 171.70 162.93 169.05 157.11 165.85 151.58 C 163.65 158.48 162.29 165.60 160.43 172.59 C 156.18 174.00 151.94 175.44 147.60 176.53 C 151.09 164.88 155.39 153.47 158.98 141.86 C 159.48 140.65 159.38 139.51 158.67 138.43 C 153.85 129.45 148.36 120.84 143.74 111.75 C 148.18 110.09 152.78 108.77 157.50 108.19 C 160.48 113.45 162.71 119.14 166.24 124.07 C 167.87 117.51 169.02 110.82 171.08 104.38 Z" />
<path fill="#ffffff" opacity="1.00" d=" M 143.43 108.35 C 146.33 105.69 150.51 105.52 154.23 105.18 C 150.83 106.81 147.19 108.01 143.43 108.35 Z" />
<path fill="#ffffff" opacity="1.00" d=" M 137.03 108.89 C 138.96 108.10 140.97 107.51 143.08 107.42 C 142.39 108.68 141.69 109.92 141.02 111.18 C 142.13 113.79 143.26 116.39 144.07 119.11 C 140.98 116.28 138.75 112.68 137.03 108.89 Z" />
<path fill="#ffffff" opacity="1.00" d=" M 64.18 124.89 C 70.65 125.26 78.04 127.37 81.33 133.46 C 83.59 138.06 84.18 143.71 82.39 148.55 C 81.32 151.59 78.01 152.98 75.01 153.03 C 71.47 153.04 67.64 153.06 64.54 151.11 C 69.42 151.21 74.83 153.39 79.28 150.42 C 83.52 147.45 83.36 141.58 82.34 137.07 C 80.66 129.53 71.92 125.78 64.83 126.60 C 64.54 134.42 64.95 142.25 64.57 150.07 C 63.88 141.71 64.44 133.28 64.18 124.89 Z" />
<path fill="#ffffff" opacity="1.00" d=" M 68.11 129.66 C 72.29 130.38 76.75 132.19 78.63 136.29 C 79.96 139.75 80.44 144.05 78.22 147.25 C 75.45 149.45 71.67 148.48 68.42 148.54 C 68.10 142.25 68.04 135.95 68.11 129.66 Z" />
<path fill="#ffffff" opacity="1.00" d=" M 141.86 181.75 C 144.83 179.38 148.74 179.29 152.34 178.95 C 149.15 180.79 145.57 181.92 141.86 181.75 Z" />
</g>
<g id="#3f3c7eff">
<path fill="#3f3c7e" opacity="1.00" d=" M 78.81 39.93 C 90.50 36.92 102.39 34.76 114.13 31.96 C 117.15 31.01 120.22 31.99 123.17 32.65 C 135.59 35.60 148.19 37.78 160.47 41.30 C 175.77 44.05 190.81 48.01 206.06 51.03 C 207.18 51.10 207.85 51.70 208.08 52.81 C 191.50 56.89 175.02 61.40 158.42 65.42 C 147.53 68.88 136.33 71.16 125.32 74.20 C 122.16 74.97 118.88 76.35 115.62 75.25 C 101.65 71.47 87.42 68.69 73.59 64.41 C 58.99 61.32 44.64 57.21 30.12 53.78 C 28.62 53.30 26.60 53.29 25.96 51.55 C 38.09 48.96 50.19 46.29 62.27 43.51 C 67.77 42.27 73.40 41.58 78.81 39.93 Z" />
<path fill="#3f3c7e" opacity="1.00" d=" M 25.93 56.19 C 42.44 60.68 59.21 64.08 75.74 68.49 C 89.66 72.24 103.72 75.41 117.60 79.32 C 117.69 118.87 117.34 158.44 117.25 198.00 C 117.05 203.97 117.63 209.97 116.78 215.91 C 111.37 215.41 106.25 213.43 100.97 212.28 C 75.42 205.97 50.04 198.99 24.59 192.25 C 24.53 169.49 24.67 146.73 24.66 123.97 C 24.61 120.30 25.51 116.69 25.40 113.02 C 25.37 97.35 25.41 81.68 25.38 66.01 C 25.41 62.73 25.08 59.40 25.93 56.19 M 28.51 60.36 C 28.18 79.56 28.43 98.76 28.29 117.96 C 28.17 121.31 27.52 124.63 27.62 127.99 C 27.64 148.02 27.59 168.04 27.62 188.07 C 27.31 190.27 30.11 190.23 31.53 190.74 C 58.92 197.03 86.01 204.51 113.24 211.43 C 113.52 168.36 113.69 125.27 113.71 82.19 C 96.43 77.74 79.09 73.51 61.79 69.15 C 50.69 66.25 39.66 63.09 28.51 60.36 Z" />
<path fill="#3f3c7e" opacity="1.00" d=" M 206.19 57.20 C 207.94 56.73 209.73 56.46 211.53 56.27 C 211.78 59.17 211.80 62.09 211.79 65.00 C 211.53 107.68 211.37 150.37 211.26 193.05 C 206.97 194.73 202.41 195.52 197.97 196.69 C 176.66 202.02 155.36 207.37 134.06 212.75 C 129.45 213.85 124.91 215.36 120.17 215.83 C 119.27 211.61 119.72 207.28 119.66 203.00 C 119.79 186.67 119.59 170.32 120.17 153.99 C 120.50 129.21 119.91 104.40 120.49 79.63 C 149.02 72.00 177.64 64.75 206.19 57.20 M 124.39 82.52 C 123.30 125.37 123.73 168.24 123.64 211.10 C 151.63 204.54 179.43 197.15 207.35 190.30 C 207.73 147.18 207.75 104.06 207.85 60.94 C 179.97 67.91 152.24 75.47 124.39 82.52 Z" />
<path fill="#3f3c7e" opacity="1.00" d=" M 165.47 98.15 C 174.56 95.06 183.91 92.72 193.19 90.24 C 188.84 104.81 183.68 119.20 179.78 133.87 C 185.58 145.86 192.39 157.35 198.64 169.11 C 189.58 171.87 180.55 174.84 171.33 177.00 C 170.12 174.71 168.90 172.42 167.66 170.14 C 167.11 173.03 166.40 175.88 165.73 178.74 C 156.68 181.52 147.49 183.97 138.23 185.92 C 141.69 175.93 144.54 165.73 147.97 155.73 C 149.22 150.84 151.45 146.15 152.11 141.14 C 150.39 137.00 148.10 133.12 145.98 129.18 C 141.83 122.15 138.61 114.60 134.17 107.73 C 142.93 104.66 151.83 101.95 160.78 99.51 C 161.87 101.36 162.84 103.28 164.09 105.03 C 164.58 102.75 165.05 100.45 165.47 98.15 M 171.08 104.38 C 169.02 110.82 167.87 117.51 166.24 124.07 C 162.71 119.14 160.48 113.45 157.50 108.19 C 152.78 108.77 148.18 110.09 143.74 111.75 C 148.36 120.84 153.85 129.45 158.67 138.43 C 159.38 139.51 159.48 140.65 158.98 141.86 C 155.39 153.47 151.09 164.88 147.60 176.53 C 151.94 175.44 156.18 174.00 160.43 172.59 C 162.29 165.60 163.65 158.48 165.85 151.58 C 169.05 157.11 171.70 162.93 174.99 168.41 C 179.35 167.26 183.71 166.08 188.06 164.86 C 183.72 154.51 176.79 145.34 172.37 135.04 C 175.49 123.48 179.86 112.28 183.01 100.73 C 179.00 101.78 174.82 102.53 171.08 104.38 M 143.43 108.35 C 147.19 108.01 150.83 106.81 154.23 105.18 C 150.51 105.52 146.33 105.69 143.43 108.35 M 137.03 108.89 C 138.75 112.68 140.98 116.28 144.07 119.11 C 143.26 116.39 142.13 113.79 141.02 111.18 C 141.69 109.92 142.39 108.68 143.08 107.42 C 140.97 107.51 138.96 108.10 137.03 108.89 M 141.86 181.75 C 145.57 181.92 149.15 180.79 152.34 178.95 C 148.74 179.29 144.83 179.38 141.86 181.75 Z" />
<path fill="#3f3c7e" opacity="1.00" d=" M 39.39 92.35 C 44.54 93.56 49.79 94.28 55.01 95.11 C 63.70 96.39 72.80 96.28 80.96 99.94 C 95.55 106.43 105.40 121.25 108.09 136.72 C 109.40 146.01 109.67 155.98 105.69 164.70 C 101.96 173.61 93.20 180.23 83.59 181.34 C 75.35 182.54 67.15 180.52 59.08 179.07 C 52.92 177.70 46.67 176.73 40.49 175.44 C 40.44 161.61 40.44 147.78 40.40 133.96 C 38.73 120.17 39.76 106.21 39.39 92.35 M 40.82 105.03 C 41.86 110.29 41.42 115.67 41.54 120.99 C 41.65 132.34 41.44 143.70 41.67 155.05 C 42.81 161.06 42.57 167.19 42.43 173.27 C 46.90 174.89 51.74 174.91 56.39 175.70 C 65.35 176.71 74.29 179.54 83.36 178.09 C 91.67 177.04 99.39 171.64 102.83 163.94 C 106.63 155.90 106.01 146.74 105.35 138.13 C 103.44 125.48 96.46 113.49 85.79 106.27 C 79.67 102.11 72.34 100.13 65.05 99.38 C 57.16 98.60 49.54 96.29 41.70 95.22 C 40.13 98.25 40.41 101.76 40.82 105.03 Z" />
<path fill="#3f3c7e" opacity="1.00" d=" M 43.34 98.26 C 51.31 98.18 59.07 100.27 66.99 100.85 C 77.45 101.57 87.78 106.40 94.22 114.80 C 103.32 125.37 106.58 140.04 104.71 153.66 C 103.61 161.84 99.06 169.73 91.79 173.88 C 85.30 177.66 77.42 177.71 70.17 176.78 C 61.54 175.27 52.94 173.57 44.37 171.75 C 44.10 160.03 45.18 148.23 43.56 136.59 C 43.35 123.82 43.55 111.04 43.34 98.26 M 45.36 100.33 C 45.42 119.22 45.69 138.11 45.59 157.01 C 45.49 161.45 46.31 165.82 46.82 170.22 C 55.24 171.00 63.55 172.64 71.92 173.78 C 78.52 174.45 85.72 174.16 91.42 170.39 C 97.12 166.80 100.78 160.52 101.76 153.93 C 103.91 140.56 100.51 125.93 91.06 115.95 C 85.02 108.94 76.07 104.82 66.93 103.96 C 66.90 109.80 66.85 115.66 67.30 121.49 C 68.99 122.85 71.54 122.62 73.54 123.47 C 80.15 125.34 85.43 131.21 86.25 138.08 C 87.20 143.96 86.86 151.61 80.98 154.85 C 74.97 157.79 68.17 155.50 61.94 154.66 C 61.59 152.46 61.56 150.22 61.51 148.00 C 61.45 133.06 60.93 118.13 60.67 103.20 C 55.59 102.13 50.55 100.78 45.36 100.33 M 64.18 124.89 C 64.44 133.28 63.88 141.71 64.57 150.07 C 64.95 142.25 64.54 134.42 64.83 126.60 C 71.92 125.78 80.66 129.53 82.34 137.07 C 83.36 141.58 83.52 147.45 79.28 150.42 C 74.83 153.39 69.42 151.21 64.54 151.11 C 67.64 153.06 71.47 153.04 75.01 153.03 C 78.01 152.98 81.32 151.59 82.39 148.55 C 84.18 143.71 83.59 138.06 81.33 133.46 C 78.04 127.37 70.65 125.26 64.18 124.89 M 68.11 129.66 C 68.04 135.95 68.10 142.25 68.42 148.54 C 71.67 148.48 75.45 149.45 78.22 147.25 C 80.44 144.05 79.96 139.75 78.63 136.29 C 76.75 132.19 72.29 130.38 68.11 129.66 Z" />
</g>
</svg>

<?xml version="1.0" encoding="utf-8"?>
<!-- Generator: Adobe Illustrator 26.0.3, SVG Export Plug-In . SVG Version: 6.00 Build 0)  -->
<svg version="1.1" id="Layer_1" xmlns="http://www.w3.org/2000/svg" xmlns:xlink="http://www.w3.org/1999/xlink" x="0px" y="0px"
	 viewBox="0 0 250 250" style="enable-background:new 0 0 250 250;" xml:space="preserve">
<style type="text/css">
	.st0{fill:#FFFFFF;}
	.st1{fill:#3F3C7E;}
</style>
<g id="_x23_ffffffff">
	<path class="st0" d="M28.5,60.4c11.1,2.7,22.2,5.9,33.3,8.8c17.3,4.4,34.6,8.6,51.9,13c0,43.1-0.2,86.2-0.5,129.2
		C86,204.5,58.9,197,31.5,190.7c-1.4-0.5-4.2-0.5-3.9-2.7c0-20,0-40.1,0-60.1c-0.1-3.4,0.5-6.7,0.7-10
		C28.4,98.8,28.2,79.6,28.5,60.4 M39.4,92.3c0.4,13.9-0.7,27.8,1,41.6c0,13.8,0,27.6,0.1,41.5c6.2,1.3,12.4,2.3,18.6,3.6
		c8.1,1.4,16.3,3.5,24.5,2.3c9.6-1.1,18.4-7.7,22.1-16.6c4-8.7,3.7-18.7,2.4-28c-2.7-15.5-12.5-30.3-27.1-36.8
		c-8.2-3.7-17.3-3.6-26-4.8C49.8,94.3,44.5,93.6,39.4,92.3z"/>
	<path class="st0" d="M124.4,82.5c27.9-7,55.6-14.6,83.5-21.6c-0.1,43.1-0.1,86.2-0.5,129.4c-27.9,6.8-55.7,14.2-83.7,20.8
		C123.7,168.2,123.3,125.4,124.4,82.5 M165.5,98.2c-0.4,2.3-0.9,4.6-1.4,6.9c-1.2-1.8-2.2-3.7-3.3-5.5c-8.9,2.4-17.9,5.2-26.6,8.2
		c4.4,6.9,7.7,14.4,11.8,21.4c2.1,3.9,4.4,7.8,6.1,12c-0.7,5-2.9,9.7-4.1,14.6c-3.4,10-6.3,20.2-9.7,30.2c9.3-1.9,18.4-4.4,27.5-7.2
		c0.7-2.9,1.4-5.7,1.9-8.6c1.2,2.3,2.5,4.6,3.7,6.9c9.2-2.2,18.2-5.1,27.3-7.9c-6.2-11.8-13.1-23.2-18.9-35.2
		c3.9-14.7,9.1-29.1,13.4-43.6C183.9,92.7,174.6,95.1,165.5,98.2z"/>
	<path class="st0" d="M40.8,105c-0.4-3.3-0.7-6.8,0.9-9.8c7.8,1.1,15.5,3.4,23.4,4.2c7.3,0.8,14.6,2.7,20.7,6.9
		c10.7,7.2,17.7,19.2,19.6,31.9c0.7,8.6,1.3,17.8-2.5,25.8c-3.4,7.7-11.2,13.1-19.5,14.1c-9.1,1.4-18-1.4-27-2.4
		c-4.6-0.8-9.5-0.8-14-2.4c0.1-6.1,0.4-12.2-0.8-18.2c-0.2-11.4,0-22.7-0.1-34.1C41.4,115.7,41.9,110.3,40.8,105 M43.3,98.3
		c0.2,12.8,0,25.6,0.2,38.3c1.6,11.6,0.5,23.4,0.8,35.2c8.6,1.8,17.2,3.5,25.8,5c7.2,0.9,15.1,0.9,21.6-2.9
		c7.3-4.2,11.8-12,12.9-20.2c1.9-13.6-1.4-28.3-10.5-38.9c-6.4-8.4-16.8-13.2-27.2-14C59.1,100.3,51.3,98.2,43.3,98.3z"/>
	<path class="st0" d="M45.4,100.3c5.2,0.4,10.2,1.8,15.3,2.9c0.3,14.9,0.8,29.9,0.8,44.8c0.1,2.2,0.1,4.5,0.4,6.7
		c6.2,0.8,13,3.1,19,0.2c5.9-3.2,6.2-10.9,5.3-16.8c-0.8-6.9-6.1-12.7-12.7-14.6c-2-0.8-4.6-0.6-6.2-2c-0.5-5.8-0.4-11.7-0.4-17.5
		c9.1,0.9,18.1,5,24.1,12c9.5,10,12.9,24.6,10.7,38c-1,6.6-4.6,12.9-10.3,16.5c-5.7,3.8-12.9,4.1-19.5,3.4
		c-8.4-1.1-16.7-2.8-25.1-3.6c-0.5-4.4-1.3-8.8-1.2-13.2C45.7,138.1,45.4,119.2,45.4,100.3z"/>
	<path class="st0" d="M171.1,104.4c3.7-1.8,7.9-2.6,11.9-3.6c-3.1,11.5-7.5,22.8-10.6,34.3c4.4,10.3,11.4,19.5,15.7,29.8
		c-4.3,1.2-8.7,2.4-13.1,3.6c-3.3-5.5-5.9-11.3-9.1-16.8c-2.2,6.9-3.6,14-5.4,21c-4.2,1.4-8.5,2.9-12.8,3.9
		c3.5-11.6,7.8-23.1,11.4-34.7c0.5-1.2,0.4-2.4-0.3-3.4c-4.8-9-10.3-17.6-14.9-26.7c4.4-1.7,9-3,13.8-3.6c3,5.3,5.2,10.9,8.7,15.9
		C167.9,117.5,169,110.8,171.1,104.4z"/>
	<path class="st0" d="M143.4,108.3c2.9-2.7,7.1-2.8,10.8-3.2C150.8,106.8,147.2,108,143.4,108.3z"/>
	<path class="st0" d="M137,108.9c1.9-0.8,3.9-1.4,6.1-1.5c-0.7,1.3-1.4,2.5-2.1,3.8c1.1,2.6,2.2,5.2,3.1,7.9
		C141,116.3,138.8,112.7,137,108.9z"/>
	<path class="st0" d="M64.2,124.9c6.5,0.4,13.9,2.5,17.2,8.6c2.3,4.6,2.8,10.2,1.1,15.1c-1.1,3-4.4,4.4-7.4,4.5
		c-3.5,0-7.4,0-10.5-1.9c4.9,0.1,10.3,2.3,14.7-0.7c4.2-3,4.1-8.8,3.1-13.3c-1.7-7.5-10.4-11.3-17.5-10.5
		c-0.3,7.8,0.1,15.7-0.3,23.5C63.9,141.7,64.4,133.3,64.2,124.9z"/>
	<path class="st0" d="M68.1,129.7c4.2,0.7,8.6,2.5,10.5,6.6c1.3,3.5,1.8,7.8-0.4,11c-2.8,2.2-6.6,1.2-9.8,1.3
		C68.1,142.2,68,135.9,68.1,129.7z"/>
	<path class="st0" d="M141.9,181.8c3-2.4,6.9-2.5,10.5-2.8C149.1,180.8,145.6,181.9,141.9,181.8z"/>
</g>
<g id="_x23_3f3c7eff">
	<path class="st1" d="M78.8,39.9c11.7-3,23.6-5.2,35.3-8c3-0.9,6.1,0,9,0.7c12.4,2.9,25,5.1,37.3,8.6c15.3,2.8,30.3,6.7,45.6,9.7
		c1.1,0.1,1.8,0.7,2,1.8c-16.6,4.1-33.1,8.6-49.7,12.6c-10.9,3.5-22.1,5.7-33.1,8.8c-3.2,0.8-6.4,2.2-9.7,1.1
		c-14-3.8-28.2-6.6-42-10.8C59,61.3,44.6,57.2,30.1,53.8c-1.5-0.5-3.5-0.5-4.2-2.2c12.1-2.6,24.2-5.3,36.3-8
		C67.8,42.3,73.4,41.6,78.8,39.9z"/>
	<path class="st1" d="M25.9,56.2c16.5,4.5,33.3,7.9,49.8,12.3c13.9,3.8,28,6.9,41.9,10.8c0.1,39.6-0.3,79.1-0.3,118.7
		c-0.2,6,0.4,12-0.5,17.9c-5.4-0.5-10.5-2.5-15.8-3.6C75.4,206,50,199,24.6,192.2c-0.1-22.8,0.1-45.5,0.1-68.3c0-3.7,0.9-7.3,0.7-11
		c0-15.7,0-31.3,0-47C25.4,62.7,25.1,59.4,25.9,56.2 M28.5,60.4c-0.3,19.2-0.1,38.4-0.2,57.6c-0.1,3.3-0.8,6.7-0.7,10
		c0,20,0,40,0,60.1c-0.3,2.2,2.5,2.2,3.9,2.7c27.4,6.3,54.5,13.8,81.7,20.7c0.3-43.1,0.5-86.2,0.5-129.2c-17.3-4.5-34.6-8.7-51.9-13
		C50.7,66.2,39.7,63.1,28.5,60.4z"/>
	<path class="st1" d="M206.2,57.2c1.8-0.5,3.5-0.7,5.3-0.9c0.2,2.9,0.3,5.8,0.3,8.7c-0.3,42.7-0.4,85.4-0.5,128.1
		c-4.3,1.7-8.8,2.5-13.3,3.6c-21.3,5.3-42.6,10.7-63.9,16.1c-4.6,1.1-9.1,2.6-13.9,3.1c-0.9-4.2-0.4-8.6-0.5-12.8
		c0.1-16.3-0.1-32.7,0.5-49c0.3-24.8-0.3-49.6,0.3-74.4C149,72,177.6,64.8,206.2,57.2 M124.4,82.5c-1.1,42.9-0.7,85.7-0.8,128.6
		c28-6.6,55.8-14,83.7-20.8c0.4-43.1,0.4-86.2,0.5-129.4C180,67.9,152.2,75.5,124.4,82.5z"/>
	<path class="st1" d="M165.5,98.2c9.1-3.1,18.4-5.4,27.7-7.9c-4.4,14.6-9.5,29-13.4,43.6c5.8,12,12.6,23.5,18.9,35.2
		c-9.1,2.8-18.1,5.7-27.3,7.9c-1.2-2.3-2.4-4.6-3.7-6.9c-0.6,2.9-1.3,5.7-1.9,8.6c-9.1,2.8-18.2,5.2-27.5,7.2
		c3.5-10,6.3-20.2,9.7-30.2c1.2-4.9,3.5-9.6,4.1-14.6c-1.7-4.1-4-8-6.1-12c-4.1-7-7.4-14.6-11.8-21.4c8.8-3.1,17.7-5.8,26.6-8.2
		c1.1,1.8,2.1,3.8,3.3,5.5C164.6,102.8,165.1,100.4,165.5,98.2 M171.1,104.4c-2.1,6.4-3.2,13.1-4.8,19.7c-3.5-4.9-5.8-10.6-8.7-15.9
		c-4.7,0.6-9.3,1.9-13.8,3.6c4.6,9.1,10.1,17.7,14.9,26.7c0.7,1.1,0.8,2.2,0.3,3.4c-3.6,11.6-7.9,23-11.4,34.7
		c4.3-1.1,8.6-2.5,12.8-3.9c1.9-7,3.2-14.1,5.4-21c3.2,5.5,5.8,11.3,9.1,16.8c4.4-1.2,8.7-2.3,13.1-3.6
		c-4.3-10.4-11.3-19.5-15.7-29.8c3.1-11.6,7.5-22.8,10.6-34.3C179,101.8,174.8,102.5,171.1,104.4 M143.4,108.3
		c3.8-0.3,7.4-1.5,10.8-3.2C150.5,105.5,146.3,105.7,143.4,108.3 M137,108.9c1.7,3.8,3.9,7.4,7,10.2c-0.8-2.7-1.9-5.3-3.1-7.9
		c0.7-1.3,1.4-2.5,2.1-3.8C141,107.5,139,108.1,137,108.9 M141.9,181.8c3.7,0.2,7.3-1,10.5-2.8C148.7,179.3,144.8,179.4,141.9,181.8
		z"/>
	<path class="st1" d="M39.4,92.3c5.2,1.2,10.4,1.9,15.6,2.8c8.7,1.3,17.8,1.2,26,4.8c14.6,6.5,24.4,21.3,27.1,36.8
		c1.3,9.3,1.6,19.3-2.4,28c-3.7,8.9-12.5,15.5-22.1,16.6c-8.2,1.2-16.4-0.8-24.5-2.3c-6.2-1.4-12.4-2.3-18.6-3.6
		c-0.1-13.8-0.1-27.7-0.1-41.5C38.7,120.2,39.8,106.2,39.4,92.3 M40.8,105c1,5.3,0.6,10.6,0.7,16c0.1,11.3-0.1,22.7,0.1,34.1
		c1.1,6,0.9,12.1,0.8,18.2c4.5,1.6,9.3,1.6,14,2.4c9,1,17.9,3.8,27,2.4c8.3-1.1,16-6.4,19.5-14.1c3.8-8,3.2-17.2,2.5-25.8
		c-1.9-12.7-8.9-24.6-19.6-31.9c-6.1-4.2-13.5-6.1-20.7-6.9c-7.9-0.8-15.5-3.1-23.4-4.2C40.1,98.2,40.4,101.8,40.8,105z"/>
	<path class="st1" d="M43.3,98.3c8-0.1,15.7,2,23.6,2.6c10.5,0.7,20.8,5.6,27.2,14c9.1,10.6,12.4,25.2,10.5,38.9
		c-1.1,8.2-5.7,16.1-12.9,20.2c-6.5,3.8-14.4,3.8-21.6,2.9c-8.6-1.5-17.2-3.2-25.8-5c-0.3-11.7,0.8-23.5-0.8-35.2
		C43.3,123.8,43.5,111,43.3,98.3 M45.4,100.3c0.1,18.9,0.3,37.8,0.2,56.7c-0.1,4.4,0.7,8.8,1.2,13.2c8.4,0.8,16.7,2.4,25.1,3.6
		c6.6,0.7,13.8,0.4,19.5-3.4c5.7-3.6,9.4-9.9,10.3-16.5c2.2-13.4-1.2-28-10.7-38c-6-7-15-11.1-24.1-12c0,5.8-0.1,11.7,0.4,17.5
		c1.7,1.4,4.2,1.1,6.2,2c6.6,1.9,11.9,7.7,12.7,14.6c0.9,5.9,0.6,13.5-5.3,16.8c-6,2.9-12.8,0.6-19-0.2c-0.3-2.2-0.4-4.4-0.4-6.7
		c-0.1-14.9-0.6-29.9-0.8-44.8C55.6,102.1,50.5,100.8,45.4,100.3 M64.2,124.9c0.3,8.4-0.3,16.8,0.4,25.2c0.4-7.8,0-15.7,0.3-23.5
		c7.1-0.8,15.8,2.9,17.5,10.5c1,4.5,1.2,10.4-3.1,13.3c-4.4,3-9.9,0.8-14.7,0.7c3.1,1.9,6.9,1.9,10.5,1.9c3-0.1,6.3-1.4,7.4-4.5
		c1.8-4.8,1.2-10.5-1.1-15.1C78,127.4,70.7,125.3,64.2,124.9 M68.1,129.7c-0.1,6.3,0,12.6,0.3,18.9c3.2-0.1,7,0.9,9.8-1.3
		c2.2-3.2,1.7-7.5,0.4-11C76.8,132.2,72.3,130.4,68.1,129.7z"/>
</g>
</svg>
